!!!COM: Mozart	
!!!OTL: 12 Variations on "Ah Vous dirais-je, Maman" for the Piano,	
!!!Variation: 4 c	
**kern	**kern
*M2/4	*M2/4
=-	=-
12CCL	4e 4g 4cc
12EE	.
12GGJ	.
12CL	4cc
12E	.
12CJ	.
=	=
12CCL	4cc 4ee 4gg
12EE	.
12GGJ	.
12CL	4gg
12E	.
12CJ	.
=	=
*	*
*	*^
12CCL	(4gg	2cc 2aa
12FF	.	.
12AAJ	.	.
12CL	4ff)	.
12F	.	.
12CJ	.	.
=	=	=
12CCL	(4ff	2cc 2gg
12EE	.	.
12GGJ	.	.
12CL	4ee)	.
12E	.	.
12CJ	.	.
*	*	*
*	*v	*v
=	=
12AAA'L	4cc 4ee 4ff
(12GG#	.
12AAJ)	.
12BBB'L	4g 4dd 4ff
(12AA#	.
12BBJ)	.
=	=
12CC'L	4g 4dd 4ee
(12BB	.
12CJ)	.
12AAA'L	4a 4cc 4ee
(12GG#	.
12AAJ)	.
=	=
12FFF'L	4a 4cc 4dd
(12EE	.
12FFJ)	.
12GGG'L	4f 4b 4dd
(12FF#	.
12GGJ)	.
=	=
12CCL	4e 4g 4cc
12EE	.
12GGJ	.
4C	4r
==	==
*-	*-
